icons/lactation.svg

<svg width="48" height="48" viewBox="0 0 48 48" fill="none" xmlns="http://www.w3.org/2000/svg">
<path fill-rule="evenodd" clip-rule="evenodd" d="M24 18C27.866 18 31 14.866 31 11C31 7.13401 27.866 4 24 4C20.134 4 17 7.13401 17 11C17 14.866 20.134 18 24 18ZM24 16C26.7614 16 29 13.7614 29 11C29 8.23858 26.7614 6 24 6C21.2386 6 19 8.23858 19 11C19 13.7614 21.2386 16 24 16Z" fill="black"/>
<path fill-rule="evenodd" clip-rule="evenodd" d="M26.7423 34.3302L21.5529 32.7568V29.4992C21.5529 28.9469 21.1052 28.4992 20.5529 28.4992C20.0007 28.4992 19.5529 28.9469 19.5529 29.4992V33.4986C19.5529 33.9159 19.8119 34.287 20.1975 34.4333L21.951 35.0985L20.4215 36.1838C20.3015 36.269 20.2026 36.3796 20.1308 36.5058L21.5495 38.3974C22.7094 39.9437 22.3961 42.1376 20.8497 43.2974C19.3034 44.4573 17.1096 44.144 15.9497 42.5976L10.7001 35.5987C9.88958 34.5181 9.77325 33.0675 10.4012 31.8716L14.3677 24.3169C15.028 23.0592 16.2435 22.1871 17.6465 21.9644L29.7501 20.0434C31.2325 19.8081 32.6999 20.5442 33.3976 21.8731L37.5973 29.8719C38.2253 31.0678 38.1089 32.5184 37.2984 33.599L32.0488 40.5979C30.8889 42.1443 28.6951 42.4576 27.1488 41.2977C25.6024 40.1379 25.2891 37.9441 26.4489 36.3977L27.6755 34.7624C27.5828 34.6778 27.4746 34.6109 27.3564 34.5656L26.7423 34.3302ZM31.229 33.6846L30.0044 34.9889L30.0048 34.9901L28.0489 37.5978C27.5518 38.2605 27.6861 39.2007 28.3488 39.6978C29.0115 40.1949 29.9517 40.0606 30.4488 39.3979L35.6984 32.3989C36.0458 31.9358 36.0957 31.3142 35.8266 30.8016L31.6269 22.8028C31.3278 22.2333 30.699 21.9178 30.0637 22.0187L17.96 23.9397C17.1806 24.0634 16.5053 24.5479 16.1384 25.2467L12.1719 32.8013C11.9028 33.3138 11.9527 33.9355 12.3001 34.3986L17.5497 41.3975C18.0467 42.0603 18.987 42.1945 19.6497 41.6975C20.3124 41.2004 20.4467 40.2602 19.9496 39.5975L17.9703 36.9586L17.9716 36.9502L16.2015 34.602L17.5541 33.5824C17.5533 33.5545 17.5529 33.5266 17.5529 33.4986V29.4992C17.5529 27.8424 18.8961 26.4992 20.5529 26.4992C22.2098 26.4992 23.5529 27.8424 23.5529 29.4992V31.2733L25.7102 31.9274C25.2607 31.227 25 30.394 25 29.5C25 27.0147 27.0147 25 29.5 25C31.9853 25 34 27.0147 34 29.5C34 31.3808 32.8462 32.9921 31.2078 33.6646L31.229 33.6846ZM27 29.5C27 28.1193 28.1193 27 29.5 27C30.8807 27 32 28.1193 32 29.5C32 30.8807 30.8807 32 29.5 32C28.1193 32 27 30.8807 27 29.5Z" fill="black"/>
</svg>

<svg
  xmlns="http://www.w3.org/2000/svg"
  width="24"
  height="24"
  viewBox="0 0 24 24"
  fill="none"
  stroke="currentColor"
  stroke-width="2"
  stroke-linecap="round"
  stroke-linejoin="round"
>
  <path
    fill-rule="evenodd"
    d="M24 18a7 7 0 1 0 0-14 7 7 0 0 0 0 14m0-2a5 5 0 1 0 0-10 5 5 0 0 0 0 10"
    clip-rule="evenodd"
  />
  <path
    fill-rule="evenodd"
    d="m26.742 34.33-5.19-1.573v-3.258a1 1 0 1 0-2 0v4a1 1 0 0 0 .646.934l1.753.666-1.53 1.085c-.12.085-.218.196-.29.322l1.418 1.891a3.5 3.5 0 1 1-5.6 4.2L10.7 35.6a3.5 3.5 0 0 1-.299-3.727l3.967-7.555a4.5 4.5 0 0 1 3.278-2.353l12.104-1.92a3.5 3.5 0 0 1 3.648 1.83l4.2 7.998a3.5 3.5 0 0 1-.3 3.727l-5.25 6.999a3.5 3.5 0 1 1-5.6-4.2l1.227-1.636a1 1 0 0 0-.319-.196zm4.487-.645-1.225 1.304v.001l-1.955 2.608a1.5 1.5 0 0 0 2.4 1.8l5.25-7a1.5 1.5 0 0 0 .128-1.596l-4.2-8a1.5 1.5 0 0 0-1.563-.783l-12.104 1.92a2.5 2.5 0 0 0-1.822 1.308L12.172 32.8A1.5 1.5 0 0 0 12.3 34.4l5.25 6.999a1.5 1.5 0 1 0 2.4-1.8l-1.98-2.64.002-.008-1.77-2.348 1.352-1.02-.001-.083v-4a3 3 0 0 1 6 0v1.774l2.157.654a4.5 4.5 0 1 1 5.498 1.737zM27 29.5a2.5 2.5 0 1 1 5 0 2.5 2.5 0 0 1-5 0"
    clip-rule="evenodd"
  />
</svg>
